X: 1890
T: Around The Twist
R: jig
M: 6/8
K: Gmajor
|:g2 d Bcd|ecA dBG|gfd Bcd|e3 def|
g2 d Bcd|ecA dBG|edc dcB|1 ABc def:|2 ABc cBA||
|:G2 B BAB|dBG ecA|G2 B BAB|ecA dBG|
G2 B BAB|def g2 d|edc dcB|1 ABc cBA:|2 ABc def||

